X: 1760
T: Roger Was A Plowboy   #2
R: hornpipe, reel
%S: s:2 b:12(5+5)
B: O'Neill's 1850 #1760
O: F.O'Neill
Z: Bob Safranek, rjs@gsp.org
N: Compacted by using labels and play order [JC]
P: Play (A1A2)x2+(BA2)x2
M: C|
L: 1/8
K: G
"^A"[|] (GF) !segno!|: DGGF GABG | AFDE F2 ((3ABc) |[1 defd cAGF | DEFE FGAF :|[2 dfeg fdcA |
| GBAF HG2 "^B"|[| ((3ABc) | dedB c2(Bc) | dgfa g2(ga) | bgag fdde | fdcA GBA!segno!F |]
